icons/tutum.svg

<?xml version="1.0" encoding="UTF-8" standalone="no"?>
<svg width="256px" height="175px" viewBox="0 0 256 175" version="1.1" xmlns="http://www.w3.org/2000/svg" xmlns:xlink="http://www.w3.org/1999/xlink" preserveAspectRatio="xMidYMid">
    <g>
        <path d="M214.049913,72.4514895 C214.646864,68.983483 215.019959,65.4337505 215.019959,61.791633 C215.019959,27.6658801 187.435805,0 153.405991,0 C129.129945,0 108.190434,14.1278628 98.1524025,34.6089998 C91.6783165,31.6455598 84.5077865,29.9541959 76.9215225,29.9541959 C48.5911779,29.9541959 25.6262943,52.986592 25.6262943,81.4057685 C25.6262943,86.295089 26.3511646,91.0138525 27.6161342,95.4980985 C11.5837104,100.863559 0,116.025428 0,133.930433 C0,139.899953 1.3147156,145.549677 3.63145768,150.652195 L74.537268,79.5225275 L62.6195485,68.002776 L107.177747,61.144935 L100.227521,104.352885 L88.9032005,93.4087665 L16.2029814,166.322183 C22.9542237,171.414041 31.3222108,174.466313 40.4150682,174.466313 L53.285068,174.466313 L163.888182,63.51853 L151.970463,51.9987785 L196.528662,45.1409377 L189.578436,88.348888 L178.250562,77.404769 L81.4910475,174.466313 L127.98934,174.466313 L182.752575,119.532521 L170.834856,108.019876 L215.393055,101.162036 L208.442828,144.369986 L197.118507,133.425867 L156.202426,174.466313 L204.704772,174.466313 C233.038669,174.466313 256,151.430364 256,123.014741 C256,97.8006275 237.903118,76.857563 214.035699,72.4514895" fill="#0096E5"></path>
    </g>
</svg>

<svg xmlns="http://www.w3.org/2000/svg" viewBox="0 0 256 174.466">
  <path fill="#0096e5" d="M214.05 72.451c.597-3.468.97-7.017.97-10.66C215.02 27.667 187.436 0 153.406 0 129.13 0 108.19 14.128 98.152 34.609c-6.474-2.963-13.644-4.655-21.23-4.655-28.33 0-51.296 23.033-51.296 51.452 0 4.89.725 9.608 1.99 14.092C11.584 100.864 0 116.025 0 133.93a40.32 40.32 0 0 0 3.631 16.722l70.906-71.13-11.917-11.52 44.558-6.857-6.95 43.208-11.325-10.944-72.7 72.913c6.751 5.092 15.12 8.144 24.212 8.144h12.87L163.888 63.52l-11.918-11.52 44.559-6.858-6.95 43.208-11.328-10.944-96.76 97.061h46.498l54.764-54.933-11.918-11.513 44.558-6.858-6.95 43.208-11.324-10.944-40.917 41.04h48.503c28.334 0 51.295-23.036 51.295-51.451 0-25.214-18.097-46.157-41.964-50.564"/>
</svg>
